icons/linear-ele-media-c-scale-to-original.svg

<svg xmlns="http://www.w3.org/2000/svg" width="32px" height="32px" viewBox="0 0 32 32" version="1.1">
    <title>linear-ele-media-c-scale-to-original</title>
    <g id="linear-ele-media-c-scale-to-original" stroke-width="1" fill-rule="evenodd">
        <path d="M29,5 C29.5522847,5 30,5.44771525 30,6 L30,26 C30,26.5522847 29.5522847,27 29,27 L3,27 C2.44771525,27 2,26.5522847 2,26 L2,6 C2,5.44771525 2.44771525,5 3,5 L29,5 Z M28,7 L4,7 L4,25 L28,25 L28,7 Z M10,11 C10.5522847,11 11,11.4477153 11,12 L11,20 C11,20.5522847 10.5522847,21 10,21 C9.44771525,21 9,20.5522847 9,20 L9,12 C9,11.4477153 9.44771525,11 10,11 Z M22,11 C22.5522847,11 23,11.4477153 23,12 L23,20 C23,20.5522847 22.5522847,21 22,21 C21.4477153,21 21,20.5522847 21,20 L21,12 C21,11.4477153 21.4477153,11 22,11 Z M16,17 C16.5522847,17 17,17.4477153 17,18 C17,18.5522847 16.5522847,19 16,19 C15.4477153,19 15,18.5522847 15,18 C15,17.4477153 15.4477153,17 16,17 Z M16,13 C16.5522847,13 17,13.4477153 17,14 C17,14.5522847 16.5522847,15 16,15 C15.4477153,15 15,14.5522847 15,14 C15,13.4477153 15.4477153,13 16,13 Z" id="&#24418;&#29366;" fill-rule="nonzero" />
    </g>
</svg>

<svg xmlns="http://www.w3.org/2000/svg" viewBox="0 0 32 32"><path fill="currentColor" d="M29 5a1 1 0 0 1 1 1v20a1 1 0 0 1-1 1H3a1 1 0 0 1-1-1V6a1 1 0 0 1 1-1zm-1 2H4v18h24zm-18 4a1 1 0 0 1 1 1v8a1 1 0 0 1-2 0v-8a1 1 0 0 1 1-1m12 0a1 1 0 0 1 1 1v8a1 1 0 0 1-2 0v-8a1 1 0 0 1 1-1m-6 6a1 1 0 1 1 0 2 1 1 0 0 1 0-2m0-4a1 1 0 1 1 0 2 1 1 0 0 1 0-2"/></svg>
